X: 1
T: Lilly, The
M: 4/4
L: 1/8
R: reel
K: Dmaj
A|:dc dA B2 AG|F2 ED E3 A|dc dA B2 AG|F2 ED D3 A:|
|:F/2E/2D AD F3 A|F/2E/2D AD E3 A|F/2E/2D AD F3 A|F2 ED D3 A:|
|:dc dA B2 de|f2 ed e3 f|gf ed B2 AG|1F2 ED D3 A:|2F2 ED D4||
